X: 15
T: The boredom that torments me
M: none
L: 1/8
B: The Orography of Thoinot Arbeau (Lengres, France, 1589)
F: http: //graner.net/nicolas/arbeau/orcheso.abc
R: gaillarde
N: for more information: http://graner.net/nicolas/arbeau/
Z: Nicolas Graner <arbeau@graner.name> Sep. 2001
K: C
 D2 D2 D2 F2 F2 F2 | F2 G2 G2 A2 z2 F2 | A2 A2 A2 A2 A2 G2 |
F2 F2 E2 F2 z2 F2 | F2 F2 G2 A2 A2 F2 | A2 A2 A2 G2 z2 E2 |
G2 G2 G2 F2 F2 D2 | A2 G2 F2 E2 z2 E2 | F2 F2 G2 A2 A2 FF |
AA A2 A2 G2 z2 E2 | G2 A2 G2 F2 F2 EE | DD D2 C2 D2 z2 D2 ||

